bundles/org.openhab.ui.habpanel/web/assets/icons/smarthome-set/ip-camera.svg

<?xml version="1.0" encoding="UTF-8" standalone="no"?>
<svg width="32px" height="32px" viewBox="0 0 32 32" version="1.1" xmlns="http://www.w3.org/2000/svg" xmlns:xlink="http://www.w3.org/1999/xlink" xmlns:sketch="http://www.bohemiancoding.com/sketch/ns">
    <!-- Generator: Sketch 3.3.2 (12043) - http://www.bohemiancoding.com/sketch -->
    <title>ip camera</title>
    <desc>Created with Sketch.</desc>
    <defs></defs>
    <g id="flatten" stroke="none" stroke-width="1" fill="none" fill-rule="evenodd" sketch:type="MSPage">
        <g id="z-copy" sketch:type="MSArtboardGroup" transform="translate(-68.000000, -164.000000)" fill="#000000">
            <g id="ip-camera" sketch:type="MSLayerGroup" transform="translate(68.000000, 164.000000)">
                <path d="M4,7.99683887 C4,5.78944571 5.78429328,4 7.99005301,4 L24.009947,4 C26.2135924,4 28,5.79412025 28,7.99683887 L28,28.0031611 C28,30.2105543 26.2157067,32 24.009947,32 L7.99005301,32 C5.78640758,32 4,30.2058797 4,28.0031611 L4,7.99683887 L4,7.99683887 Z M6,7.99683887 L6,28.0031611 C6,29.1040455 6.89371137,30 7.99005301,30 L24.009947,30 C25.1094813,30 26,29.1076401 26,28.0031611 L26,7.99683887 C26,6.89595453 25.1062886,6 24.009947,6 L7.99005301,6 C6.89051874,6 6,6.89235986 6,7.99683887 L6,7.99683887 Z M16,21 C13.2385763,21 11,18.7614237 11,16 C11,13.2385763 13.2385763,11 16,11 C18.7614237,11 21,13.2385763 21,16 C21,18.7614237 18.7614237,21 16,21 L16,21 Z M16,20 C18.209139,20 20,18.209139 20,16 C20,13.790861 18.209139,12 16,12 C13.790861,12 12,13.790861 12,16 C12,18.209139 13.790861,20 16,20 L16,20 Z M16,18 C14.8954305,18 14,17.1045695 14,16 C14,14.8954305 14.8954305,14 16,14 C17.1045695,14 18,14.8954305 18,16 C18,17.1045695 17.1045695,18 16,18 L16,18 Z M16,17 C16.5522847,17 17,16.5522847 17,16 C17,15.4477153 16.5522847,15 16,15 C15.4477153,15 15,15.4477153 15,16 C15,16.5522847 15.4477153,17 16,17 L16,17 Z M30,6 C30,6 30,7 31,7 C32,7 32,6 32,6 L32,3.99005301 C32,1.78429328 29.9549192,0 27.4321842,0 L4.56781585,0 C2.05042315,0 0,1.78640758 0,3.99005301 L0,6 C0,6 0,7 1,7 C2,7 2,6 2,6 L2,3.99005301 C2,2.9576674 3.09722409,2 4.56781585,2 L27.4321842,2 C28.9069453,2 30,2.95444953 30,3.99005301 L30,6 L30,6 Z M22.5,11 C21.6715729,11 21,10.3284271 21,9.5 C21,8.67157288 21.6715729,8 22.5,8 C23.3284271,8 24,8.67157288 24,9.5 C24,10.3284271 23.3284271,11 22.5,11 L22.5,11 Z M10,26.5 C10,25.6672337 10.6796267,25 11.5096495,25 L20.4903505,25 C21.3195079,25 22,25.6750564 22,26.5 C22,27.3327663 21.3203733,28 20.4903505,28 L11.5096495,28 C10.6804921,28 10,27.3249436 10,26.5 L10,26.5 Z M11,26.5 C11,26.7680664 11.2281779,27 11.5096495,27 L20.4903505,27 C20.7723472,27 21,26.7761424 21,26.5 C21,26.2319336 20.7718221,26 20.4903505,26 L11.5096495,26 C11.2276528,26 11,26.2238576 11,26.5 L11,26.5 Z M22.5,10 C22.7761424,10 23,9.77614237 23,9.5 C23,9.22385763 22.7761424,9 22.5,9 C22.2238576,9 22,9.22385763 22,9.5 C22,9.77614237 22.2238576,10 22.5,10 L22.5,10 Z" sketch:type="MSShapeGroup"></path>
            </g>
        </g>
    </g>
</svg>

<svg width="32" height="32" xmlns="http://www.w3.org/2000/svg"><path d="M4 7.997A3.992 3.992 0 0 1 7.99 4h16.02A3.996 3.996 0 0 1 28 7.997v20.006A3.992 3.992 0 0 1 24.01 32H7.99A3.996 3.996 0 0 1 4 28.003V7.997Zm2 0v20.006C6 29.104 6.894 30 7.99 30h16.02c1.1 0 1.99-.892 1.99-1.997V7.997C26 6.896 25.106 6 24.01 6H7.99C6.89 6 6 6.892 6 7.997ZM16 21a5 5 0 1 1 0-10 5 5 0 0 1 0 10Zm0-1a4 4 0 1 0 0-8 4 4 0 0 0 0 8Zm0-2a2 2 0 1 1 0-4 2 2 0 0 1 0 4Zm0-1a1 1 0 1 0 0-2 1 1 0 0 0 0 2ZM30 6s0 1 1 1 1-1 1-1V3.99C32 1.784 29.955 0 27.432 0H4.568C2.05 0 0 1.786 0 3.99V6s0 1 1 1 1-1 1-1V3.99C2 2.958 3.097 2 4.568 2h22.864C28.907 2 30 2.954 30 3.99V6Zm-7.5 5a1.5 1.5 0 1 1 0-3 1.5 1.5 0 0 1 0 3ZM10 26.5c0-.833.68-1.5 1.51-1.5h8.98c.83 0 1.51.675 1.51 1.5 0 .833-.68 1.5-1.51 1.5h-8.98A1.51 1.51 0 0 1 10 26.5Zm1 0c0 .268.228.5.51.5h8.98c.282 0 .51-.224.51-.5a.51.51 0 0 0-.51-.5h-8.98a.505.505 0 0 0-.51.5ZM22.5 10a.5.5 0 1 0 0-1 .5.5 0 0 0 0 1Z" fill="#000" fill-rule="evenodd"/></svg>
